icons/inbox-cross.svg

<svg xmlns="http://www.w3.org/2000/svg" width="24" height="24" viewBox="0 0 24 24">
  <path d="M6,16 L6.11662113,16.0067277 C6.61395981,16.0644928 7,16.4871642 7,17 C7,18.5976809 8.24891996,19.9036609 9.82372721,19.9949073 L10,20 L14,20 L14.1762728,19.9949073 C15.6927538,19.9070404 16.9070404,18.6927538 16.9949073,17.1762728 L17,17 L17.0067277,16.8833789 C17.0600494,16.424297 17.424297,16.0600494 17.8833789,16.0067277 L18,16 L22,16 L22,20 C22,21.1045695 21.1045695,22 20,22 L4,22 C2.8954305,22 2,21.1045695 2,20 L2,16 L6,16 Z M20,2 C21.1045695,2 22,2.8954305 22,4 L22,14 L18,14 L17.8237272,14.0050927 C16.24892,14.0963391 15,15.4023191 15,17 C15,17.5128358 14.6139598,17.9355072 14.1166211,17.9932723 L14,18 L10,18 L9.88337887,17.9932723 C9.42429701,17.9399506 9.06004937,17.575703 9.00672773,17.1166211 L9,17 L8.99490731,16.8237272 C8.90704038,15.3072462 7.69275384,14.0929596 6.17627279,14.0050927 L6,14 L2,14 L2,4 C2,2.8954305 2.8954305,2 4,2 L20,2 Z M10.6128994,6.20970461 C10.2206082,5.90467972 9.65337718,5.93240926 9.29289322,6.29289322 C8.90236893,6.68341751 8.90236893,7.31658249 9.29289322,7.70710678 L9.29289322,7.70710678 L10.585,9 L9.29289322,10.2928932 L9.20970461,10.3871006 C8.90467972,10.7793918 8.93240926,11.3466228 9.29289322,11.7071068 C9.68341751,12.0976311 10.3165825,12.0976311 10.7071068,11.7071068 L10.7071068,11.7071068 L12,10.415 L13.2928932,11.7071068 L13.3871006,11.7902954 C13.7793918,12.0953203 14.3466228,12.0675907 14.7071068,11.7071068 C15.0976311,11.3165825 15.0976311,10.6834175 14.7071068,10.2928932 L14.7071068,10.2928932 L13.415,9 L14.7071068,7.70710678 L14.7902954,7.61289944 C15.0953203,7.22060824 15.0675907,6.65337718 14.7071068,6.29289322 C14.3165825,5.90236893 13.6834175,5.90236893 13.2928932,6.29289322 L13.2928932,6.29289322 L12,7.585 L10.7071068,6.29289322 Z"/>
</svg>

<svg xmlns="http://www.w3.org/2000/svg" viewBox="0 0 24 24">
  <path d="M6 16h.12A1 1 0 0 1 7 17a3 3 0 0 0 2.82 3h4.36a3 3 0 0 0 2.81-2.82L17 17v-.12a1 1 0 0 1 .88-.87L18 16h4v4a2 2 0 0 1-2 2H4a2 2 0 0 1-2-2v-4h4zM20 2a2 2 0 0 1 2 2v10h-4.18A3 3 0 0 0 15 17a1 1 0 0 1-.88 1H9.88a1 1 0 0 1-.87-.88L9 17v-.18a3 3 0 0 0-2.82-2.81L6 14H2V4c0-1.1.9-2 2-2h16zm-9.39 4.21a1 1 0 0 0-1.32 1.5L10.6 9l-1.3 1.3-.08.09a1 1 0 0 0 1.5 1.32L12 10.4l1.3 1.3.09.08a1 1 0 0 0 1.32-1.5L13.4 9l1.3-1.3.08-.09a1 1 0 0 0-1.5-1.32L12 7.6l-1.3-1.3z"/>
</svg>
